icons/1_Primary/Apple.svg

<svg width="1024" height="1024" viewBox="0 0 1024 1024" fill="none" xmlns="http://www.w3.org/2000/svg">
<g clip-path="url(#clip0_2_1500)">
<path d="M512 1024C794.77 1024 1024 794.77 1024 512C1024 229.23 794.77 0 512 0C229.23 0 0 229.23 0 512C0 794.77 229.23 1024 512 1024Z" fill="#979797"/>
<path d="M407.199 722.1C397.099 715.4 388.199 707.1 380.699 697.6C372.499 687.7 364.999 677.3 357.999 666.6C341.699 642.7 328.899 616.6 319.999 589.1C309.299 557.1 304.199 526.4 304.199 496.4C304.199 462.9 311.399 433.7 325.599 409.2C335.999 390 351.599 374 370.399 362.7C388.499 351.4 409.599 345.2 430.999 344.8C438.499 344.8 446.599 345.9 455.099 348C461.299 349.7 468.699 352.5 477.899 355.9C489.599 360.4 495.999 363.1 498.199 363.8C504.999 366.4 510.799 367.4 515.299 367.4C518.699 367.4 523.599 366.3 529.099 364.6C532.199 363.5 538.099 361.6 546.399 358C554.599 355 561.199 352.5 566.299 350.5C574.199 348.2 581.799 346 588.699 345C596.999 343.7 605.299 343.3 613.199 343.9C628.299 345 642.199 348.2 654.599 352.9C676.299 361.6 693.899 375.3 706.999 394.7C701.499 398.1 696.299 402.1 691.499 406.4C681.099 415.6 672.299 426.4 665.299 438.5C656.099 454.9 651.399 473.5 651.599 492.2C651.899 515.3 657.799 535.6 669.499 553.2C677.799 566 688.799 577 702.199 585.9C708.799 590.4 714.599 593.5 720.099 595.5C717.499 603.5 714.699 611.3 711.499 619C704.099 636.2 695.299 652.7 684.799 668.3C675.599 681.7 668.299 691.8 662.799 698.4C654.199 708.6 645.999 716.3 637.599 721.8C628.399 727.9 617.699 731.1 606.599 731.1C599.099 731.4 591.699 730.5 584.599 728.4C578.399 726.4 572.299 724.1 566.299 721.5C560.099 718.6 553.599 716.2 546.999 714.3C538.899 712.2 530.599 711.1 522.199 711.2C513.699 711.2 505.399 712.3 497.499 714.3C490.899 716.2 484.499 718.5 478.199 721.2C469.199 724.9 463.399 727.4 459.999 728.4C453.099 730.4 445.999 731.7 438.899 732.1C427.799 732.1 417.499 728.9 407.199 722.5V722.1ZM553.299 328.5C538.799 335.7 524.999 338.8 511.199 337.8C509.099 324 511.199 309.9 516.999 294.4C522.099 281.2 528.899 269.2 538.299 258.6C548.099 247.5 559.799 238.3 573.099 231.7C587.199 224.5 600.599 220.6 613.399 220C615.099 234.5 613.399 248.8 608.099 264.1C603.199 277.7 595.999 290.3 586.799 301.6C577.499 312.7 565.999 321.9 552.999 328.5H553.299Z" fill="white"/>
</g>
<defs>
<clipPath id="clip0_2_1500">
<rect width="1024" height="1024" fill="white"/>
</clipPath>
</defs>
</svg>

<svg xmlns="http://www.w3.org/2000/svg" width="1024" height="1024" fill="none">
   <g clip-path="url(#a)">
      <path fill="#979797" d="M512 1024c282.77 0 512-229.23 512-512S794.77 0 512 0 0 229.23 0 512s229.23 512 512 512Z"/>
      <path fill="#fff" d="M407.199 722.1c-10.1-6.7-19-15-26.5-24.5-8.2-9.9-15.7-20.3-22.7-31-16.3-23.9-29.1-50-38-77.5-10.7-32-15.8-62.7-15.8-92.7 0-33.5 7.2-62.7 21.4-87.2 10.4-19.2 26-35.2 44.8-46.5 18.1-11.3 39.2-17.5 60.6-17.9 7.5 0 15.6 1.1 24.1 3.2 6.2 1.7 13.6 4.5 22.8 7.9 11.7 4.5 18.1 7.2 20.3 7.9 6.8 2.6 12.6 3.6 17.1 3.6 3.4 0 8.3-1.1 13.8-2.8 3.1-1.1 9-3 17.3-6.6 8.2-3 14.8-5.5 19.9-7.5 7.9-2.3 15.5-4.5 22.4-5.5 8.3-1.3 16.6-1.7 24.5-1.1 15.1 1.1 29 4.3 41.4 9 21.7 8.7 39.3 22.4 52.4 41.8-5.5 3.4-10.7 7.4-15.5 11.7-10.4 9.2-19.2 20-26.2 32.1-9.2 16.4-13.9 35-13.7 53.7.3 23.1 6.2 43.4 17.9 61 8.3 12.8 19.3 23.8 32.7 32.7 6.6 4.5 12.4 7.6 17.9 9.6-2.6 8-5.4 15.8-8.6 23.5-7.4 17.2-16.2 33.7-26.7 49.3-9.2 13.4-16.5 23.5-22 30.1-8.6 10.2-16.8 17.9-25.2 23.4-9.2 6.1-19.9 9.3-31 9.3-7.5.3-14.9-.6-22-2.7-6.2-2-12.3-4.3-18.3-6.9-6.2-2.9-12.7-5.3-19.3-7.2-8.1-2.1-16.4-3.2-24.8-3.1-8.5 0-16.8 1.1-24.7 3.1-6.6 1.9-13 4.2-19.3 6.9-9 3.7-14.8 6.2-18.2 7.2-6.9 2-14 3.3-21.1 3.7-11.1 0-21.4-3.2-31.7-9.6v-.4Zm146.1-393.6c-14.5 7.2-28.3 10.3-42.1 9.3-2.1-13.8 0-27.9 5.8-43.4 5.1-13.2 11.9-25.2 21.3-35.8 9.8-11.1 21.5-20.3 34.8-26.9 14.1-7.2 27.5-11.1 40.3-11.7 1.7 14.5 0 28.8-5.3 44.1-4.9 13.6-12.1 26.2-21.3 37.5-9.3 11.1-20.8 20.3-33.8 26.9h.3Z"/>
   </g>
   <defs>
      <clipPath id="a">
         <path fill="#fff" d="M0 0h1024v1024H0z"/>
      </clipPath>
   </defs>
</svg>
